X:1
T:Title
%%score { ( 1 3 ) | ( 2 4 ) }
L:1/8
Q:1/4=100
M:4/4
K:Eb
V:1 treble nm="Grand Piano"
V:3 treble 
V:2 bass 
V:4 bass 
V:1
 G2 B>A G2 E2 | G2 A>G G2 F2 | B,2 C>D E2 G2 | F2 G>=A B4 | [GB]2 [Ge]>[Bd] [Bd]2 c2 | %5
w: W.~H.~Doane * * * *|||||
 c2 [Bd]>[Ac] [Ac]2 [GB]2 | [GB]2 [Gc]>[GB] [GB]2 A2 | [B,EG]2 [B,EG]>[DF] E4 | %8
w: |||
 [DB][EB][FB][EB] [DB]3 [Dc] | BGEF G4 | FFBc d3 e | dcG=A [DB]4 | B2 c>B B2 G2 | G2 A>G [EG]2 F2 | %14
w: ||||||
 B,2 C>D E2 .[CFB]2 | [B,EG]2 .[B,DF]2 [G,E]4 |] %16
w: ||
V:2
 [E,G,B,]2 [E,G,B,]2 [E,G,B,]2 z2 | [E,G,B,]2 [E,G,B,]2 [D,F,B,]4 | %2
 [B,,F,A,]2 [B,,F,A,]2 [E,G,]2 z2 | [F,B,D]2 [F,CE]2 [B,,B,]2 z2 | %4
 [E,,E,]2 [E,,E,]2 [A,,A,]2[K:treble] A2 | [A,EA]2[K:bass] [A,E]2 [E,E]4 | [E,E]2 [=E,C]2 z2 F2 | %7
 B,,2 z z/ A,/ E,4 | [B,,F,][B,,G,][B,,A,][B,,G,] [B,,F,]3 [B,,A,] | %9
 [E,G,E][E,B,E][G,B,][F,B,D] [E,B,E]4 | [F,B,D][F,B,D][F,B,D][F,=A,E] [F,B,F]3 [F,B,G] | %11
 [F,B,F][F,=A,E][F,CE][F,CE] [B,,B,]4 | [E,G,E]2 [E,A,E]>[E,G,E] [E,G,E]2 [E,B,E]2 | %13
 [E,B,E]2 [E,CE]>[E,B,E] z2 D2 | [B,,G,]2 [B,,F,A,]>[B,,A,B,] [E,G,B,]2 z A | B,,2 z A, E,4 |] %16
V:3
 x8 | x8 | x8 | z4 D2 z2 | x8 | x8 | x8 | x8 | x8 | x8 | x8 | x8 | x8 | x8 | x8 | x8 |] %16
V:4
 x8 | x8 | x8 | x8 | x6[K:treble] x2 | x2[K:bass] x6 | z4 [F,C]4 | z2 B,,2 z4 | x8 | x8 | x8 | x8 | %12
 x8 | z4 [B,,B,]4 | z4 z2 A,,2 | z2 B,,2 z4 |] %16

